X:1
T:Rimsky-Korsakov Harmonic Exercises 28
T:Rimsky-Korsakov Harmonic Exercises 29
T:"Practical Manual of Harmony" (1885)
T:Realization by S. Shchetnikov
%%score { ( 1 2 ) | ( 3 4 ) }
L:1/8
Q:1/4=90
M:4/4
K:C
V:1 treble nm="Piano" snm="Pno."
V:2 treble 
V:3 bass 
V:4 bass 
V:1
"""^Harmonisation of melodies containing melodic figuration""^Example by Rimsky-Korsakov (""_C:" (EGcB"" AcBA | %1
"""^passing tones" GAGd"""_C:""_G:""_{""^,""^suspensions" edc"^auxiliary tones""^,"B | %2
 ABcA"^):" dg^fe | dedc BGBd |"""_G:""_d:""_{" g=f""ed-"" d^c=Bc |"""_d:""_a:""_{" dAfe dcBA | %6
 ^GABd-"""_a:""_C:""_{"[Q:1/4=90] d[Q:1/4=86]"^.7"c[Q:1/4=83]"^.3"B[Q:1/4=80]c | %7
""[Q:1/4=76]"^.7" d[Q:1/4=73]"^.3"e""[Q:1/4=70]f[Q:1/4=66]"^.7"d""[Q:1/4=63]"^.3" !breath!!fermata!e4) |] %8
[K:A][M:3/4]"^Exercise 29.1"[Q:1/4=90] CD EA- AG | Ac ed- dc- | cB- BA- AG | A^A Bf e2 | %12
 eA BF GB- | BA ce- ed- | dc df eG | !breath!A6 |]"""^Realization 29.1""_A:" (CD EA-"" AG | %17
"" Ac"""_A:""_b:""_{" ed- dc- |"""_b:""_A:""_{" cB-"" BA-"" AG | %19
"""_A:""_b:""_{" A^A"""_b:""_A:""_{" Bf"" e2 |"""_A:" eA"" BF"" G""B- |"" BA"" c""e-"" ed- | %22
"" d[Q:1/4=90]c""[Q:1/4=86]"^.4" d[Q:1/4=82]"^.7"f""[Q:1/4=79]"^.1" e""[Q:1/4=75]"^.5"G | %23
""[Q:1/4=71]"^.8" A6) |] %24
V:2
 (E4 F4- | F4"" E4 |"""" ^F4"" G4- |"" G2"" ^F2"" G4 |"" B2 _B2 A4 |"" A6 D2 |"""""" E8 | %7
 A2 _A2 G4) |][K:A][M:3/4] x6 | x6 | x6 | x6 | x6 | x6 | x6 | x6 |] (A,B, CE- E2 |"" E4"" F2 | %18
"" D2 E4 |"""" E2"" F2 G2 | A2 F2 ED | C2 E2 F2 | E2 FA ED | C6) |] %24
V:3
 (C8- | C2 B,2 C2 G,2 | D8 | A,4 G,2 D2 | D2 GF E4 | D4 A,4 | B,4 A,4 | A,2 B,2 C4) |] %8
[K:A][M:3/4] z6 | z6 | z6 | z6 | z6 | z6 | z6 | z6 |] (A,3 C B,2 | C4 C2 | F,2 A,2 B,2 | %19
 A,=G, F,2 B,2 | A,4 G,2 | A,2 G,2 F,2 | A,4 G,B, | A,6) |] %24
V:4
 (C,4 F,4 | D,4 C,4- | C,2 A,,2 B,,3 C, | D,4 G,4 | G,8 | F,8 | E,4 A,2 =G,2 | F,4 !fermata!C,4) |] %8
[K:A][M:3/4] x6 | x6 | x6 | x6 | x6 | x6 | x6 | x6 |] (A,,4 E,2 | A,,4 ^A,,2 | B,,2 C,2 D,2 | %19
 C,2 D,2 E,""D, | C,2 D,2 E,2 | F,2 E,C, D,2 | A,,2 D,2 E,2 | A,,6) |] %24

